packages/kaspersky-hexa-ui-icons/src/iconsSVGs/24/ArrangeGroup.svg

<svg width="24" height="24" viewBox="0 0 24 24" fill="none" xmlns="http://www.w3.org/2000/svg">
<path d="M2 6C2 5.44772 2.44772 5 3 5H14C14.5523 5 15 5.44772 15 6C15 6.55228 14.5523 7 14 7H3C2.44772 7 2 6.55228 2 6Z" fill="black"/>
<path d="M5 12C5 11.4477 5.44772 11 6 11H18C18.5523 11 19 11.4477 19 12C19 12.5523 18.5523 13 18 13H6C5.44772 13 5 12.5523 5 12Z" fill="black"/>
<path d="M10 17C9.44772 17 9 17.4477 9 18C9 18.5523 9.44772 19 10 19H21C21.5523 19 22 18.5523 22 18C22 17.4477 21.5523 17 21 17H10Z" fill="black"/>
</svg>

<svg xmlns="http://www.w3.org/2000/svg" width="24" height="24" fill="none" viewBox="0 0 24 24"><path fill="#000" fill-rule="evenodd" d="M2 6c0-.5523.4477-1 1-1h11c.5523 0 1 .4477 1 1s-.4477 1-1 1H3c-.5523 0-1-.4477-1-1m3 6c0-.5523.4477-1 1-1h12c.5523 0 1 .4477 1 1s-.4477 1-1 1H6c-.5523 0-1-.4477-1-1m4 6c0-.5523.4477-1 1-1h11c.5523 0 1 .4477 1 1s-.4477 1-1 1H10c-.5523 0-1-.4477-1-1"/></svg>
